X:382
T:B382-  Quatre Branles
Q:1/4=120
L:1/4
M:C
K:C
ee/d/ c/B/c/d/|(e/f/)g/f/ed|ee/d/ c/B/c/d/|\
(e/f/)gd2::(e/f/)g/a/ g/f/e/d/|eccf|fed2:|\
(e/f/)g(e/f/)g|(e/f/)gfd|aa/g/fe|aa/g/fe|\
(e/f/)g/e/ (f/e/)d/c/|(B/A/)c/B/cg/f/|ed/c/dg/f/|edcg/f/|\
ed/c/dg/f/|edc2|]

